X: 1
T: BATTLE THE CASH -- JIG
B: Ryan's Mammoth Collection of Fiddle Tunes
R: jig
M: 6/8
L: 1/8
Z: Contributed 20000913201101 by John Chambers John.Chambers:weema.com
K: G
uD \
| (vG2.c) BGB | (c2.c) (c2.A) | (G2.c) "SEGUE"BGB | A2A A2B \
| G2c BGB | c2c c2"4"e | dBG cAF | G2G G2 :|
ud \
| (vg2.g) gdB | (c2.c) (c2.e) | "SEGUE"g2g gdB | A2A A2d \
| vg2g gdB | c2c c2A | BGB cAF | G2G G2 :|
